X:1
T:Title
%%score [ 1 2 3 4 ]
L:1/8
Q:1/4=120
M:4/4
K:G
V:1 treble nm="MusicXML Part"
V:2 treble nm="MusicXML Part"
V:3 bass nm="MusicXML Part"
V:4 bass nm="MusicXML Part"
V:1
 dc | B2 B2"^Guter Mond, du gehst so stille" (Bc) (de) | %2
w: Gu- ter|Mond, du gehst * so *|
w: Dei- nes|Schöp- fers wei * ser *|
w: Gu- ter|Mond, o gie * sse *|
w: Wen- de|von dem Schmerz * hie *|
w: Gu- ter|Mond, du gehst * so *|
w: Bist so|ruh- ig, und * ich *|
w: Gu- ter|Mond, dir will * ich's *|
w: Und an|wen mit bi * ttren *|
 (dc) A2"^Volksweise aus dem 19. Jhd\nText: Karl Enslin (1819-1875)" z2 dc | B2 B2 (AG) (AB) | %4
w: sti * lle durch die|A- bend- wol * ken *|
w: Wi * lle hiess auf|je- ner Bahn * dich *|
w: Frie * den in das|ar- me Men * schen *|
w: nie * den un- s're|See- le hi * mmel *|
w: sti * lle in den|A- bend- wo * lken *|
w: füh * le, dass ich|oh- ne Ru * he *|
w: sa * gen, was mein|ban- ges Her * ze *|
w: Kla * gen die be-|trü- bte See * le *|
 G4 z2 :| AB | c2 A2 z2 Bc | d2 B2 z2 dd | e3 d (ed) (cB) | (B2 A2) z2 dc | B2 B2 (Bc) (de) | %11
w: hin.|Leu- chte|freund- lich je- dem|Mü- den in das|sti- lle Käm * mer *|lein, * und dein|Schi- mmer gie * sse *|
w: ziehn.|Mild und|freun- dlich schaust du|nie- der von des|Hi- mmels blau * em *|Zelt, * Und es|tö- nen un * sre *|
w: herz.|Trau- rig|fol- gen mei- ne|Bli- cke dei- ner|sti- llen, hei * tern *|Bahn. * O wie|hart ist mein * Ge *|
w: wärts.|Gu- ter|Mond, du kannst es|wi- ssen, weil du|so ver- schwie * gen *|bist, * wa- rum|Mei- ne Trä * nen *|
w: hin,|||||||
w: bin.|||||||
w: kränkt,|||||||
w: denkt!|||||||
 (dc) A2 z2 dc | B2 B2 (AG) (AB) | G4 z2 |] %14
w: Frie * den ins be-|trü- bte Herz * hin *|ein!|
w: Lie * der hell hin-|auf zum Herrn * der *|Welt.|
w: schi * cke, dass ich|dir nicht fol * gen *|kann.|
w: flie * ssen und mein|Herz so trau * rig *|ist.|
w: |||
w: |||
w: |||
w: |||
V:2
 FA | G2 G2 (GA) (Bc) | (BA) F2 z2 FA | G2 G2 F2 F2 | D4 z2 :| FG | A2 F2 z2 GA | B2 G2 z2 GG | %8
 G3 G G2 (FG) | (G2 F2) z2 FA | G2 G2 (GA) (Bc) | (BA) F2 z2 FA | G2 G2 F2 F2 | D4 z2 |] %14
V:3
 DD | D2 D2 D2 D2 | D2 D2 z2 DD | D2 D2 D2 C2 | B,4 z2 :| DD | D2 D2 z2 DD | D2 D2 z2 B,D | %8
 C3 B, (CB,) (A,B,) | D4 z2 DD | D2 D2 D2 D2 | D2 D2 z2 DD | D2 D2 D2 C2 | B,4 z2 |] %14
V:4
 D,F, | G,2 G,2 G,2 G,2 | D,2 D,2 z2 D,F, | G,2 G,2 D,2 D,2 | G,4 z2 :| D,D, | D,2 D,2 z2 G,G, | %7
 G,2 G,2 z2 G,B, | C3 B, (CB,) (A,G,) | D,4 z2 D,F, | G,2 G,2 G,2 G,2 | D,2 D,2 z2 D,F, | %12
 G,2 G,2 D,2 D,2 | G,4 z2 |] %14

